X: 39876
T: This Is My Love, Do You Like Her?
R: jig
M: 6/8
K: Edorian
EGE EDE|G3 A3|BdB BAB|d3 e2d|
B2c dcB|AFA D2E|F2A AGF|E3 E3:|
|:e2e edB|e3 f2e|d2B BAB|d3 e2d|
B2c dcB|AFA D2E|F2A AGF|E3 E3:|

